X: 10
T:Chestnut Reel
% Nottingham Music Database
S:Mick Peat
P:Play AABA last time
M:4/4
L:1/4
K:G
^G/2A/2^A/2|:"G"B/2G/2B/2d/2 g/2d/2B/2G/2|"C"AA A2|"D"A/2F/2A/2c/2 A/2e/2d/2c/2\
|"G"BG G/2^G/2A/2^A/2|
"G"B/2G/2B/2d/2 g/2d/2B/2G/2|"C"AA A2|"D"A/2F/2A/2c/2 A/2f/2e/2f/2|\
[1"G"gG G/2 ^G/2A/2^A/2:|[2"G"gG G/2c/2^c/2d/2||
K:Cm
|:"Cm"e/2c/2e/2g/2 "Cm"c'/2g/2e/2c/2|"Fm"d/2e/2f/2e/2 "Fm"d/2c/2=B/2c/2|\
"G"=B/2G/2B/2d/2 B/2a/2g/2f/2|"Cm"e/2d/2c/2=B/2 c/2G/2c/2d/2|
K:Cm
"Cm"e/2c/2e/2g/2 "Cm"c'/2g/2e/2c/2|"Fm"d/2e/2f/2e/2 "D"d/2c/2=B/2c/2|\
"G"=B/2G/2B/2d/2 B/2a/2g/2f/2|1"Cm"ec c^c/2d/2:|2"Cm"ec c2||<end>
<start>
